X:127
M:2/4
L:1/8
Q:1/4=140
K:G
(cB)!wedge!A!wedge!G|FGAB|B2A2|G2 Bd|cBAG|e2 fa|
(gf)!wedge!e!wedge!d|(ed)!wedge!c!wedge!B|(cB)!wedge!A!wedge!G|\
(AF)(BG)|(AF)(BG)|AF D2|G2 Bd|cBAG|e2 fa|(gf)!wedge!e!wedge!d|\
(ed)!wedge!c!wedge!B|(cB)!wedge!A!wedge!G|FGAF|G4:|

